!!!!SEGMENT: pl-wn--mus-1722_zelenski-wladyslaw--serenada.krn
!!!cenid: 18xx:3792
!!!COM: Żeleński, Władysław
!!!COM-rismID: pe41024455
!!!CDT:
!!!CNT:
!!!OTL: Serenada
!!!PDT:
!!!AGN:
!!!SMS-siglum: PL-Wn
!!!SMS-shelfmark: Mus.1722
!!!SMS-shelfwork: W
!!!SMS-variant:
!!!SMS-altvar:
!!!NIFC-rismSourceID:
!!!NIFC-islandoraID:
!!!URL-pdf-islandora:
!!!URL-scan: https://polona.pl/item/serenada-na-spiew-z-towarzyszeniem-fortepianu,NjYzODU0ODM/0/#info:metadata @EN{Scan on Polona} @PL{Skany w portalu Polona}
!!!ONB-nifc:
!!!AIN: 1 empty 1 forte
!!!key:
**kern	**kern	**dynam	**kern	**text	**dynam
*part2	*part2	*part2	*part1	*part1	*part1
*staff3	*staff2	*	*staff1	*staff1	*
*Iforte	*Iempty	*	*Iempty	*	*
*I"Fortepian.	*	*	*I"śpiew.	*	*
*I'pf	*	*	*I'voce umana	*	*
*ICklav	*	*	*ICvox	*	*
*clefF4	*clefG2	*	*clefG2	*	*
*k[]	*k[]	*	*k[]	*	*
*C:	*C:	*	*C:	*	*
*M3/4	*M3/4	*	*M3/4	*	*
=1	=1	=1	=1	=1	=1
*	*^	*	*	*	*
!	!	!	!	!LO:TX:a:t=Quasi mazurka moderato.	!	!
4GGG/	8r	4ryy	p	2.r	.	.
*	*Xtuplet	*	*	*	*	*
.	24b\LL	.	.	.	.	.
.	24cc\	.	.	.	.	.
.	24b\JJ	.	.	.	.	.
(4d\	[2dd/	(8a\L	.	.	.	.
.	.	8g\	.	.	.	.
4G\)	.	8f#X\	.	.	.	.
.	.	8e\J	.	.	.	.
=2	=2	=2	=2	=2	=2	=2
4GGG/	4dd/]	8.f#X\L	.	2.r	.	.
.	.	16a\Jk)	.	.	.	.
(4A\	4cc/ (<4e/	2ryy	.	.	.	.
4BB\)	[4b/ 4d#X/	.	.	.	.	.
=3	=3	=3	=3	=3	=3	=3
4GGG/	4b/]	8d\L)	.	2.r	.	.
.	.	24g\L	.	.	.	.
.	.	24a\	.	.	.	.
.	.	24g\JJ	.	.	.	.
(4G\	[2b/	8fn\L	.	.	.	.
.	.	8e\	.	.	.	.
4GG/)	.	8d\	.	.	.	.
.	.	8c\J	.	.	.	.
=4	=4	=4	=4	=4	=4	=4
4GGG/	4b/]	(>8.d\L	.	2.r	.	.
.	.	16f\Jk	.	.	.	.
(4F\	4.c/ 4.a	2ryy	.	.	.	.
4GG/)	.	.	.	.	.	.
.	8B/) 8g	.	.	.	.	.
*	*v	*v	*	*	*	*
!!LO:LB:g=original
=5	=5	=5	=5	=5	=5
8GG/	8B/ 8g	.	2.r	.	.
8r	8r	.	.	.	.
*Xtuplet	*	*	*	*	*
*ped	*	*	*	*	*
N(>24GGG/LL	4ryy	.	.	.	.
24DD/	.	.	.	.	.
24GG/JJ	.	.	.	.	.
24BB/LL	.	.	.	.	.
24D/	.	.	.	.	.
24F/JJ	.	.	.	.	.
4ryy	32G\LLL	.	.	.	.
.	32B\	.	.	.	.
.	32d\	.	.	.	.
.	32f\	.	.	.	.
.	32g\	.	.	.	.
.	32b\	.	.	.	.
.	32dd\	.	.	.	.
.	32ff\JJJ	.	.	.	.
=6	=6	=6	=6	=6	=6
2.r	8gg\N)	.	2.r	.	.
.	8r	.	.	.	.
.	4r	.	.	.	.
*Xped	*	*	*	*	*
.	4r	.	.	.	.
=7	=7	=7	=7	=7	=7
!LO:TX:t=P:problem=mixed beam	!LO:TX:a:t=legg.	!	!	!	!
N(16CC/LL	4ryy	.	2.r	.	.
16GG/	.	.	.	.	.
16C/	.	.	.	.	.
N[<16E>\JJ	.	.	.	.	.
4r	4E/N)N] 4c	.	.	.	.
4C'\	4E'/ 4G	.	.	.	.
=8	=8	=8	=8	=8	=8
!LO:TX:t=P:problem=mixed beam	!	!	!	!	!
N(16CC/LL	4ryy	.	2.r	.	.
16GG/	.	.	.	.	.
16C/	.	.	.	.	.
N[<16E>\JJ	.	.	.	.	.
4r	4E/N)N] 4A	.	.	.	.
4C'\	4E'/ 4G	.	.	.	.
!!LO:LB:g=original
=9	=9	=9	=9	=9	=9
!LO:TX:t=P:problem=mixed beam	!	!	!	!	!
N(16CC/LL	4ryy	.	4r	.	.
16GG/	.	.	.	.	.
16C/	.	.	.	.	.
N[<16E>\JJ	.	.	.	.	.
!	!	!	!	!	!LO:DY:a
4r	4E/N)N] 4c	.	8e/	Na	p
.	.	.	8f/	dzień	.
4C'\	4E'/ 4G	.	8g/	do-	.
.	.	.	8a/	-bry	.
=10	=10	=10	=10	=10	=10
!LO:TX:t=P:problem=mixed beam	!	!	!	!	!LO:DY:a
N(>16CC/LL	4ryy	.	8g/	pi-	<
16GG/	.	.	.	.	.
16C/	.	.	4b/	-eśń	[
N[<16E>\JJ	.	.	.	.	.
4r	4E/N] 4A	.	.	.	.
.	.	.	8a/	ci	.
4C'\	4E'/N) 4G	.	8e/	nio-	.
.	.	.	8f/	-sę.	.
=11	=11	=11	=11	=11	=11
!LO:TX:t=P:problem=mixed beam	!	!	!	!	!LO:DY:a
N(>16CC/LL	4ryy	.	8g/	Dziew-	<
16GG/	.	.	.	.	.
16C/	.	.	8g/	-czę	.
N[<16E>\JJ	.	.	.	.	.
4r	4E/N] 4c	.	8a/	mo-	.
.	.	.	8b/	-je	.
4C'\	4E'/N) 4G	.	8.dd\	zło-	.
.	.	.	16cc\	-to-	[
=12	=12	=12	=12	=12	=12
!LO:TX:t=P:problem=mixed beam	!	!	!	!	!LO:DY:a
N(>16CC/LL	4ryy	.	4cc\	-wło-	>
16GG/	.	.	.	.	.
16C/	.	.	.	.	.
N[16E>\JJ	.	.	.	.	.
4r	4E/N)N] 4A	.	4e/	-se,	.
4C'\	4E'/ 4G	.	8e/	Już	.
.	.	.	8g/	się	]
!!LO:LB:g=original
=13	=13	=13	=13	=13	=13
!LO:TX:t=P:problem=mixed beam	!	!	!LO:TX:a:t=espr.	!	!
N(>16DD/LL	4ryy	.	(4f/	o-	.
16AA/	.	.	.	.	.
16D/	.	.	.	.	.
16F>\JJ	.	.	.	.	.
4r	4F/ 4B	.	4.b/)	.	.
4D'\	4F'/N) 4G#X	.	.	.	.
!	!	!	!	!	!LO:HP:a:t=poco cresc.
.	.	.	8f/	-cknął	<
=14	=14	=14	=14	=14	=14
!LO:TX:t=P:problem=mixed beam	!	!	!	!	!
N(>16FF/LL	4ryy	.	2a/	świat;	.
16C/	.	.	.	.	.
16F/	.	.	.	.	.
N[<16A>\JJ	.	.	.	.	.
4r	4A/N] 4e	.	.	.	.
4F'\	4A'/N) 4c#X	.	8c#X/	już	.
.	.	.	8e/	się	.
=15	=15	=15	=15	=15	=15
!LO:TX:t=P:problem=mixed beam	!	!	!	!	!LO:DY:a
N(>16FF/LL	4ryy	.	(4d/	o-	<
16D/	.	.	.	.	.
16F/	.	.	.	.	.
N[<16A>\JJ	.	.	.	.	.
4r	4A/N] 4f	.	[4a/)	.	[
4F'\	4A'/N) 4e	.	8.a/]	.	.
!	!	!	!	!	!LO:DY:a
.	.	.	16g/	-cknął	>
=16	=16	=16	=16	=16	=16
!LO:TX:t=P:problem=mixed beam	!	!	!	!	!
N(>16FF/LL	4ryy	.	[4g/	świat;	.
16D/	.	.	.	.	.
16F/	.	.	.	.	.
N[<16A>\JJ	.	.	.	.	.
4r	4A/N] 4e	.	8g/]	.	.
.	.	.	8r	.	]
N(4F'\	4Bn'/N) 4d	.	4r	.	.
=17	=17	=17	=17	=17	=17
!LO:TX:t=P:problem=mixed beam	!LO:TX:a:t=legg.	!	!	!	!
16CC/LL	4ryy	.	4r	.	.
16GG/	.	.	.	.	.
16C/	.	.	.	.	.
N[<16E>\JJ)	.	.	.	.	.
!	!	!	!	!	!LO:DY:a
4r	4E/N] 4cN)	.	8e/	Ra-	p
.	.	.	8f/	-nek	.
4C'\	4E'/ 4G	.	8g/	sy-	.
.	.	.	8a/	-pie	.
!!LO:PB:g=original
=18	=18	=18	=18	=18	=18
!LO:TX:t=P:problem=mixed beam	!	!	!	!	!LO:DY:a
N(>16CC/LL	4ryy	.	(>8g/	per-	<
16GG/	.	.	.	.	.
16C/	.	.	4b/)	.	.
N[<16E>\JJ	.	.	.	.	.
4r	4E/N)N] 4A	.	.	.	.
.	.	.	8a/	-ły,	[
4C'\	4E'/ 4G	.	8e/	ro-	.
.	.	.	8f/	-sę,	.
=19	=19	=19	=19	=19	=19
!LO:TX:t=P:problem=mixed beam	!	!	!	!	!LO:DY:a
N(>16EE/LL	4ryy	<	8g/	Na	<
16C/	.	.	.	.	.
16E/	.	.	8a/	zie-	.
N[<16G>\JJ	.	.	.	.	.
4r	4G/N)N] 4e	.	(8b/	-lo-	.
.	.	.	4dd\)	.	.
4E'\	4G'/ 4c	[	.	.	.
.	.	.	8cc\	-ną	[
=20	=20	=20	=20	=20	=20
!LO:TX:t=P:problem=mixed beam	!	!	!	!	!
N(>16AAA/LL	4ryy	.	8b\	wrzo-	.
16EE/	.	.	.	.	.
!	!	!	!	!	!LO:DY:a
16AA/	.	.	8cc\	-sów	>
16E>\JJ	.	.	.	.	.
4r	4E/N) 4c	>	4e/	Ko-	.
4C'\	4E'/ 4A	]]	4a/	-sę,	]]
=21	=21	=21	=21	=21	=21
!LO:TX:t=P:problem=mixed beam	!	!	!	!	!LO:DY:a
N(>16AAA/LL	4ryy	.	8g/	Ra-	<
16FF/	.	.	.	.	.
16AA/	.	.	8e/	-nek	.
N[<16F>\JJ	.	.	.	.	.
4r	4F/N] 4cN)	.	(>8f/L	to	.
.	.	.	[8cc/J	.	.
4AA'\	4C<'/ 4F<	.	8.cc/])	.	.
.	.	.	16f/	twój	.
!!LO:LB:g=original
=22	=22	=22	=22	=22	=22
!LO:TX:t=P:problem=mixed beam	!	!	!	!	!
N(>16GGG/LL	4ryy	.	[>4b/	brat!	.
16GG/	.	.	.	.	.
16BB/	.	.	.	.	.
N[<16E>\JJ	.	.	.	.	.
4r	4E/N)N] 4B	.	8b/]	.	.
.	.	.	8r	.	.
4CC#X\ 4C#X	4G'/ 4B	.	8e/	Ra-	.
.	.	.	8g/	-nek	.
=23	=23	=23	=23	=23	=23
!LO:TX:t=P:problem=mixed beam	!	!	!	!	!
N(>16DD/LL	4ryy	.	(>4b/	to	.
16AA/	.	.	.	.	.
16D/	.	.	.	.	.
N[<16G>\JJ	.	.	.	.	.
4r	4G/N] 4e	.	[>4a/)	.	.
4DD/ 4C	4F#X/N) 4d	.	8.a/]	.	.
.	.	.	16dd\	twój	.
=24	=24	=24	=24	=24	=24
*	*^	*	*	*	*
!	!	!	!	!	!	!LO:DY:a
4GGG/	8r	4ryy	p	[<2dd\	brat!	>
.	(<24b\LL	.	.	.	.	.
.	24cc\	.	.	.	.	.
.	24b\JJ	.	.	.	.	.
(4d\	[2dd/	8a\L	.	.	.	.
.	.	8g\	.	.	.	.
4G\)	.	8f#X\	.	8dd\]	.	]
.	.	8e\J	.	8r	.	.
=25	=25	=25	=25	=25	=25	=25
4GGG/	4dd/]	8.f#X\L	.	2.r	.	.
.	.	16a\Jk)	.	.	.	.
(4A\	4e'/ 4cc	2ryy	.	.	.	.
4BB\)	[4d#X'/ [4b	.	.	.	.	.
=26	=26	=26	=26	=26	=26	=26
4GGG/	4b/]	(<8d#\L]	.	2.r	.	.
.	.	24g\L	.	.	.	.
.	.	24a\	.	.	.	.
.	.	24g\JJ	.	.	.	.
(4G\	[2b/	8fn\L	.	.	.	.
.	.	8e\	.	.	.	.
4GG/)	.	8d#y\	.	.	.	.
.	.	8c\J	.	.	.	.
!!LO:LB:g=original
=27	=27	=27	=27	=27	=27	=27
4GGG/	4b/]	8.d\L)	.	2.r	.	.
.	.	16f\Jk	.	.	.	.
(4F\	4.c/ 4.a	2ryy	.	.	.	.
[4GG/)	.	.	.	.	.	.
.	8B/ 8g	.	.	.	.	.
*	*v	*v	*	*	*	*
=28	=28	=28	=28	=28	=28
8GG/]	8B/ 8g	.	2.r	.	.
8r	8r	f	.	.	.
*ped	*	*	*	*	*
N(>24GGG/LL	4ryy	.	.	.	.
24DD/	.	.	.	.	.
24GG/JJ	.	.	.	.	.
24BB/LL	.	.	.	.	.
24D/	.	.	.	.	.
24G/JJ	.	.	.	.	.
4ryy	32B\LLL	.	.	.	.
.	32d\	.	.	.	.
.	32g\	.	.	.	.
.	32b\JJJ	.	.	.	.
.	32dd\LLL	.	.	.	.
.	32gg\	.	.	.	.
.	32bb\	.	.	.	.
.	32ddd\JJJ	.	.	.	.
=29	=29	=29	=29	=29	=29
2.r	8ggg\N)	.	2.r	.	.
.	8r	.	.	.	.
.	4r	.	.	.	.
*Xped	*	*	*	*	*
.	4r	.	.	.	.
=30	=30	=30	=30	=30	=30
*^	*	*	*	*	*
!LO:N:vis=2	!	!	!	!	!	!
4EE-X/	2.EE-X\	4r	p	2.r	.	.
!	!	!LO:TX:b:t=armanioso.	!	!	!	!
4BB-X/	.	4G/ 4B-X 4e-X	.	.	.	.
4BB-/	.	4A-X/ 4c 4e-	.	.	.	.
=31	=31	=31	=31	=31	=31	=31
!LO:N:vis=2	!	!	!	!	!	!
4EE-X/	2.EE-X\	4r	.	2.r	.	.
4BB-X/	.	4A-X/ 4c 4e	.	.	.	.
4BB-/	.	4G/ 4B-X 4e	.	.	.	.
!!LO:LB:g=original
=32	=32	=32	=32	=32	=32	=32
!LO:N:vis=2	!	!	!	!	!	!
4EE-X/	2.EE-X\	4r	.	4.dd\	Smu-	.
4BB-X/	.	4F/ 4A-X 4e-X	.	.	.	.
.	.	.	.	8cc\	-tnej	.
4BB-/	.	4G/ 4B-X 4e-	.	8b-X/	du-	.
.	.	.	.	8g/	-szy	.
=33	=33	=33	=33	=33	=33	=33
!LO:N:vis=2	!	!	!	!	!	!
4EE-X/	2.EE-\	4r	.	8e-X/	mej	.
.	.	.	.	8f/	ju-	.
4BB-X/	.	4A-X/ 4c 4e-X	.	4a-X/	-trzen-	.
4BB-/	.	4G/ 4B-X 4e-	.	4g/	-ko,	.
=34	=34	=34	=34	=34	=34	=34
!LO:N:vis=2	!	!	!	!	!	!
4FF/	2.FF\	4r	.	8g/	Bo	.
.	.	.	.	8b-X/	w niej	.
(4C/	.	4A-X/ 4e-X	.	4a-X/	jesz-	.
4E-X/)	.	4A-/ 4c	.	4cc/	-cze	.
=35	=35	=35	=35	=35	=35	=35
!LO:N:vis=2	!	!	!	!	!	!
4AA-X/	2.AA-\	4r	.	2f/	cień...	.
(4C/	.	4F/ 4e-X	.	.	.	.
4E-X/)	.	4F/ 4c	.	8g/	Bo	.
.	.	.	.	8b-X/	w niej	.
=36	=36	=36	=36	=36	=36	=36
!LO:N:vis=2	!	!	!	!	!	!LO:DY:a
4FF/	2.FF\	4r	<	(4a-X/	je-	<
(4C/	.	4A-X/ 4d	.	4.dd\)	.	.
4E-X/)	.	4A-/ 4c	[[	.	.	.
.	.	.	.	8a-/	-szcze	[[
*v	*v	*	*	*	*	*
!!LO:PB:g=original
=37	=37	=37	=37	=37	=37
*	*^	*	*	*	*
!	!	!	!	!	!	!LO:DY:a
4BBB-X/	4r	4ryy	>	[2cc\	cień...	>
(4A-X\	4cc/	8e-X\L	.	.	.	.
.	.	8d\	.	.	.	.
4BB-X/)	8f/L	8c\	.	8cc\]	.	.
.	8a-X/J	8d\J	]	8r	.	]]
=38	=38	=38	=38	=38	=38	=38
*^	*	*	*	*	*	*
!LO:N:vis=2	!	!	!	!	!	!	!
4EE-X/	2.EE-\	8e-X/	4ryy	.	4r	.	.
.	.	8r	.	.	.	.	.
!LO:TX:b:t=legg.	!	!	!	!	!LO:TX:a:t=poco agitato	!	!
4BB-X/	.	4e-/	(<8G\L 8B-X	.	8g/	Zbudź	.
.	.	.	8F\J	.	8b-X/	się,	.
4BB-/	.	4c/ 4e- 4A-X/)	4ryy	.	8e-X/	śpiew-	.
.	.	.	.	.	8f/	-ny	.
=39	=39	=39	=39	=39	=39	=39	=39
!LO:N:vis=2	!	!	!	!	!	!	!
(>4EE-X/	2.EE-\	4r	4ryy	.	8g/	mój	.
.	.	.	.	.	8b-X/	sko-	.
4BB-X/)	.	4e-X/	(<8A-X\L 8c	.	4cc\	-wron-	.
.	.	.	8F\J	.	.	.	.
4BB-/	.	4B-X/ 4e- 4G/)	4ryy	.	4g/	-ku,	.
=40	=40	=40	=40	=40	=40	=40	=40
!LO:N:vis=2	!	!	!	!	!	!	!LO:DY:a
(>4EE-X/	2.EE-\	4r	4ryy	.	8b-X\	O-	<
.	.	.	.	.	8cc\	-cząt	.
4BB-X/)	.	[4e-X'/	(<8G\L 8B-X	<	8g/	gwiaz-	.
.	.	.	8F\J	.	8a-X/	-dy	.
4BB-/	.	4B-'/ 4e-] 4G/)	4ryy	.	8b-/	za-	.
.	.	.	.	.	8dd\	-pal	[[
=41	=41	=41	=41	=41	=41	=41	=41
!LO:N:vis=2	!	!	!	!	!	!	!
(>4CC/	2CC\	4r	4ryy	[	2ff\	w słon-	.
4C/)	.	4f/	(<8G\L 8B-X	.	.	.	.
.	.	.	8F\J	.	.	.	.
(>4C#X/ (<4CC#X/	4ryy	4B-/ 4e-X 4G/)	4ryy	>]	4ee-X\	-ku	.
*	*	*v	*v	*	*	*	*
!!LO:LB:g=original
=42	=42	=42	=42	=42	=42	=42
!	!	!	!	!	!	!LO:DY:a
8DD/) 8D)	4ryy	8F#X/ 8An 8d	.	[<2.dd\	No-	<[
8r	.	8r	.	.	.	.
!	!LO:N:vis=2	!	!	!	!	!
2c/	4c\	8f#X/L	p <	.	.	.
.	.	8g/	.	.	.	.
.	4D\	8a/	.	.	.	.
.	.	8b-X/J	[[	.	.	.
=43	=43	=43	=43	=43	=43	=43
4DD/	4ryy	8a/L	.	4.dd\]	.	.
.	.	8d/J	.	.	.	.
!	!LO:N:vis=2	!	!	!	!	!
[2B-X/	4B-\	4g/	.	.	.	.
.	.	.	.	8cc\	-cą	.
.	4E-X\	(4c#X/ [4g	.	8b-X/	bez	.
.	.	.	.	8a/	nich	.
=44	=44	=44	=44	=44	=44	=44
4B-/]	2D\	4d/) 4g]	.	8g/	no-	.
.	.	.	.	8b-X/	-cą	.
4A/	.	4c#X/ 4en	>	4en/	bez	.
4F#X/	4D\	4cn/ 4a	]]	4a/	nich	.
*v	*v	*	*	*	*	*
=45	=45	=45	=45	=45	=45
*	*^	*	*	*	*
4GGG/	(<8B-X/ 8g	4ryy	p	[>2g/	dzień...	.
.	24b-X\LL	.	.	.	.	.
.	24cc\	.	.	.	.	.
.	24b-\JJ	.	.	.	.	.
(4d\	[2dd/	8a\L	.	.	.	.
.	.	8g\	.	.	.	.
4G\)	.	8fn\	.	8g/]	.	.
.	.	8e-X\J	.	8r	.	.
=46	=46	=46	=46	=46	=46	=46
4GGG/	4dd/]	8.f\L)	.	2.r	.	.
.	.	16a\Jk	.	.	.	.
(4G\	4cc/	4e-X\	.	.	.	.
4GG/)	[4b-X/	[4d\	.	.	.	.
=47	=47	=47	=47	=47	=47	=47
4GGG/	4b-/]	8d\L]	.	2.r	.	.
.	.	24g\L	.	.	.	.
.	.	24a\	<	.	.	.
.	.	24g\JJ	.	.	.	.
(4G\	[2b-X/	8fn\L	.	.	.	.
.	.	8e-X\	.	.	.	.
4GG/)	.	8d\	.	.	.	.
.	.	8B\J	.	.	.	.
=48	=48	=48	=48	=48	=48	=48
4GGG/	4b-/]	8.d\L	.	2.r	.	.
.	.	16fn\Jk	[	.	.	.
4F\	4.c/ 4.a-X	2ryy	.	.	.	.
[4GG/	.	.	.	.	.	.
.	8Bn/ 8g	.	.	.	.	.
*	*v	*v	*	*	*	*
=49	=49	=49	=49	=49	=49
8GG/]	8B/ 8g	.	2.r	.	.
8r	8r	f	.	.	.
*ped	*	*	*	*	*
N(>24GGG/LL	4ryy	.	.	.	.
24DD/	.	.	.	.	.
24GG/	.	.	.	.	.
24BB/	.	.	.	.	.
24D/	.	.	.	.	.
24F/JJ	.	.	.	.	.
4ryy	32G\LLL	.	.	.	.
.	32B\	.	.	.	.
.	32d\	.	.	.	.
.	32f\	.	.	.	.
.	32g\	.	.	.	.
.	32b\	.	.	.	.
.	32dd\	.	.	.	.
.	32ff\JJJ	.	.	.	.
=50	=50	=50	=50	=50	=50
2.r	8gg\N)	.	2.r	.	.
.	8r	.	.	.	.
.	4r	.	.	.	.
*Xped	*	*	*	*	*
.	4r	.	.	.	.
=51	=51	=51	=51	=51	=51
!LO:TX:t=P:problem=mixed beam	!	!	!	!	!
!LO:TX:b:t=con Pedale	!	!	!	!	!
N(>16CC/LL	4ryy	pp	4r	.	.
16GG/	.	.	.	.	.
16C/	.	.	.	.	.
16E>\JJ	.	.	.	.	.
4r	8G/L	.	8e/	Pod	.
.	8A/	.	8f/	twem	.
4r	8E/N)	.	8g/	ok-	.
.	8c/J	.	8a/	-nem	.
!!LO:LB:g=original
=52	=52	=52	=52	=52	=52
!LO:TX:t=P:problem=mixed beam	!	!	!	!	!
N(>16CC/LL	4r	.	(>8g/	w ran-	.
16GG/	.	.	.	.	.
16C/	.	.	4b/)	.	.
16E>\JJ	.	.	.	.	.
4r	8G/L	.	.	.	.
.	8c/N)	.	8a/	-nej	.
4r	8E/	.	8e/	do-	.
.	8c/J	.	8f/	-bie,	.
=53	=53	=53	=53	=53	=53
!LO:TX:t=P:problem=mixed beam	!	!	!	!	!LO:DY:a
N(>16CC/LL	4ryy	.	8g/	Ja-	<
16GG/	.	.	.	.	.
16C/	.	.	8g/	-ko	.
16E/JJ	.	.	.	.	.
4r	8c/L	<	8a/	sło-	.
.	8G/	.	8b/	-wik	.
4r	8E/	.	8.dd\	nu-	[
.	8G/JN)	[[	.	.	.
.	.	.	16cc\	-cę	.
=54	=54	=54	=54	=54	=54
!LO:TX:t=P:problem=mixed beam	!	!	!	!	!
N(>16CC/LL	4ryy	.	4cc\	to-	.
16GG/	.	.	.	.	.
16C/	.	.	.	.	.
16E/JJ	.	.	.	.	.
4r	8G/L	.	4e/	-bie,	.
.	8c/	.	.	.	.
4r	8E/	.	8.e/	Patrz	.
.	8c/JN)	.	.	.	.
.	.	.	16g/	już	.
=55	=55	=55	=55	=55	=55
!LO:TX:t=P:problem=mixed beam	!	!	!	!	!
N(>16DD/LL	4ryy	.	(>4f/	spło-	.
16AA/	.	.	.	.	.
16D/	.	.	.	.	.
16F/JJ	.	.	.	.	.
4r	8B/L	<	4.b/)	.	.
.	8F/	.	.	.	.
4r	8G#X/	.	.	.	.
.	8B/JN)	[[	8f/	-nął	.
!!LO:PB:g=original
=56	=56	=56	=56	=56	=56
*	*^	*	*	*	*
!LO:TX:t=P:problem=mixed beam	!	!	!	!	!	!
N(>16FF/LL	4ryy	4ryy	.	[>4a/	świt...	.
16C/	.	.	.	.	.	.
16F/	.	.	.	.	.	.
16A>\JJ	.	.	.	.	.	.
4r	4e/	8e\L	.	8a/]	.	.
.	.	8A\	.	8r	.	.
4r	4ryy	8c#X\	.	8.c#X/	Patrz,	.
.	.	8e\JN)	.	.	.	.
.	.	.	.	16e/	już	.
=57	=57	=57	=57	=57	=57	=57
!LO:TX:t=P:problem=mixed beam	!	!	!	!	!	!LO:DY:a
N(>16FF/LL	4ryy	4ryy	.	(>4d/	spło-	<
16C/	.	.	.	.	.	.
16F/	.	.	.	.	.	.
16A>\JJ	.	.	.	.	.	.
4r	4.f/	8f\L	<	[>4a/)	.	.
.	.	8A\	.	.	.	.
4r	.	8c#X\	.	8.a/]	.	.
.	8e/	8e\JN)	.	.	.	.
.	.	.	[	16g/	-nął	[[
=58	=58	=58	=58	=58	=58	=58
!LO:TX:t=P:problem=mixed beam	!	!	!	!	!	!LO:DY:a
N(>16FF/LL	4ryy	4ryy	.	[>4g/	świt...	>
16C/	.	.	.	.	.	.
16F/	.	.	.	.	.	.
16A>\JJ	.	.	.	.	.	.
4r	4.e/	8e\L	<	8g/]	.	.
.	.	8A\	.	8r	.	]
4r	.	8B\	.	4r	.	.
.	8d/	8d\JN)	[	.	.	.
*	*v	*v	*	*	*	*
=59	=59	=59	=59	=59	=59
!LO:TX:a:t=legg.	!	!	!	!	!
4CC/	4r	.	4r	.	.
!	!LO:TX:a:t=Szybciej!	!	!	!	!LO:HP:a:t=sempre animando e cresc.
4r	4E/ 4B-X 4c	.	8e/	W ser-	<
.	.	.	8g/	-cu	.
4r	4E/ 4B- 4c	.	8a/	na-	.
.	.	.	8b-X/	-raz	.
=60	=60	=60	=60	=60	=60
!	!	!.	!	!	!LO:DY:a
4FF/	4r	.	4a/	jas-	.
!	!	!LO:HP:t=poco cresc.	!	!	!
4r	4F/ 4A 4c	<	4f/	-no;	.
4r	4F/ 4A 4c	.	4r	.	.
!!LO:LB:g=original
=61	=61	=61	=61	=61	=61
4DD/	4r	.	4r	.	.
4r	4F/ 4A 4c	.	8f/	w ser-	.
.	.	.	8a/	-cu	.
4r	4F/ 4A 4c	.	8bn/	na-	.
.	.	.	8cc/	-raz	.
=62	=62	=62	=62	=62	=62
4EE\	4r	.	4b/	bło-	.
4r	4G/ 4B	.	4g/	-go?	.
4r	4G/ 4B	.	4r	.	.
=63	=63	=63	=63	=63	=63
!LO:TX:t=P:problem=mixed beam	!	!	!	!	!LO:DY:a
N(>16CC/LL	4ryy	.	8g/	Tyś	<
16C/	.	.	.	.	.
16E/	.	.	8a/	zbu-	.
16B-X>\JJ	.	.	.	.	.
!	!	!	!LO:TX:a:t=problem&colon;LO&colon;N&colon;vis=8	!	!
4r	4c/N)	.	8.b-X/	-dzi-	.
.	.	.	16dd\	-ła	.
4C\	4E/ 4B-X 4c	.	8.cc\	się	.
.	.	.	16g#X/	nie-	[[
=64	=64	=64	=64	=64	=64
!LO:TX:t=P:problem=mixed beam	!	!	!	!	!
N(>16FF/LL	4ryy	.	4b-X/	-bo-	.
16C/	.	.	.	.	.
16F/	.	.	.	.	.
16A>\JJ	.	.	.	.	.
4r	4c/N)	.	4a/	-go,	.
4C\	4F/ 4A 4c	.	4r	.	.
=65	=65	=65	=65	=65	=65
!LO:TX:t=P:problem=mixed beam	!	!LO:DY:a	!	!	!
N(>16FFF/LL	4ryy	f	4r	.	.
16FF/	.	.	.	.	.
16F>\	.	<	.	.	.
16A>\JJ	.	.	.	.	.
!	!	!	!	!	!LO:DY:a
4r	4d/	.	4dd\	Piosn-	f
4FFF#X/ 4FF#X	4E/ 4A 4cN)	[[	4cc\	-ko	.
=66	=66	=66	=66	=66	=66
!LO:TX:t=P:problem=mixed beam	!	!	!LO:TX:a:t=espr.	!	!
N(>16GGG/LL	4ryy	.	4.ee\	mo-	.
16GG/	.	.	.	.	.
16E>\	.	.	.	.	.
16c>\JJ	.	.	.	.	.
4r	4e/	.	.	.	.
.	.	.	8cc\	-ja	.
4GG\	4E/ 4G 4cN)	.	8b/	piosn-	.
.	.	.	8a/	-ko	.
!!LO:LB:g=original
=67	=67	=67	=67	=67	=67
!LO:TX:t=P:problem=mixed beam	!	!	!	!	!
N(>16GGG/LL	4ryy	.	(>4g/	mo-	.
16GG/	.	.	.	.	.
16F>\	.	.	.	.	.
16c>\JJ	.	.	.	.	.
4r	4f/	.	[>4a/)	.	.
4GG\	4F/ 4B 4dN)	.	8.a/]	.	.
.	.	.	16g/	-ja	.
=68	=68	=68	=68	=68	=68
!LO:TX:t=P:problem=mixed beam	!	!	!	!	!
N(>16CC/LL	4ryy	.	[>4g/	cyt	.
16GG/	.	.	.	.	.
16C/	.	.	.	.	.
16E>\JJ	.	.	.	.	.
4r	8G/L	.	8g/]	.	.
.	8c/	.	8r	.	.
4r	8E/	.	4r	.	.
.	8G/JN)	.	.	.	.
=69	=69	=69	=69	=69	=69
!LO:TX:t=P:problem=mixed beam	!	!	!	!	!
N(>16CC/LL	4ryy	.	4r	.	.
16GG/	.	.	.	.	.
16C/	.	.	.	.	.
16E>\JJ	.	.	.	.	.
4r	8G/L	.	8e/	Tyś	.
.	8c/	.	8g/	zbu-	.
4r	8E/	.	8a/	-dzi-	.
.	8G/JN)	.	8b-X/	-łą	.
=70	=70	=70	=70	=70	=70
*	*^	*	*	*	*
!LO:TX:t=P:problem=mixed beam	!	!	!	!	!	!
N(>16FF/LL	4ryy	4ryy	.	8a/	się	.
16C/	.	.	.	.	.	.
16F>\	.	.	.	8a/	nie-	.
16A>\JJ	.	.	.	.	.	.
4r	4.d/	8d\L	.	4dd\	-bo-	.
.	.	8F\	.	.	.	.
4r	.	8A\	.	4cc\	-go?	.
.	8c/	8c\JN)	.	.	.	.
=71	=71	=71	=71	=71	=71	=71
!LO:TX:t=P:problem=mixed beam	!	!	!	!	!	!
16FFF#X/LL	4ryy	4ryy	.	4r	.	.
16FF/	.	.	.	.	.	.
16E>\	.	.	.	.	.	.
16c>\JJ	.	.	.	.	.	.
!	!	!	!	!	!	!LO:DY:a
4r	4.e/	8e\L	.	4ee\	Piosn-	f
.	.	8E\	.	.	.	.
4r	.	8A\	.	4cc\	-ko	.
.	8c/	8c\J	.	.	.	.
!!LO:LB:g=original
=72	=72	=72	=72	=72	=72	=72
*	*	*	*	*^	*	*
!LO:TX:t=P:problem=mixed beam	!	!	!	!	!	!	!
*	*	*	*	*	*cue	*	*
16GGG/LL	4ryy	4ryy	.	4.ff\	4.gg/	mo-	.
16GG/	.	.	.	.	.	.	.
16G>\	.	.	.	.	.	.	.
16c>\JJ	.	.	.	.	.	.	.
!	!LO:TX:b:t=poco rit.	!	!	!	!	!	!
4r	4.f/	8f\L	.	.	.	.	.
!	!	!	!	!LO:TX:a:t=poco rit.	!	!	!
.	.	8G\	.	8ee\	4.ryy	-ja	.
4r	.	8c\	.	8cc\	.	piosn-	.
.	8e/	8e\J	.	8a/	.	-ko	.
*	*	*	*	*v	*v	*	*
=73	=73	=73	=73	=73	=73	=73
!LO:TX:t=P:problem=mixed beam	!	!	!	!	!	!LO:DY:a
16GGG/LL	4ryy	4ryy	.	(>8g/L	mo-	p
16GG/	.	.	.	.	.	.
16F>\	.	.	.	8b/J	.	.
16G>\JJ	.	.	.	.	.	.
4r	4.c/	8c\L	.	4.a/	.	.
.	.	8F\	.	.	.	.
4r	.	8G\	.	.	.	.
.	8B/	8B\J	.	8g/)	-ja	.
=74	=74	=74	=74	=74	=74	=74
!LO:TX:a:t=a tempo	!	!	!	!LO:TX:a:t=a tempo	!	!
4CC/	8E/L 8c	4ryy	.	[4cc\	cyt.	.
.	24g/L	.	p	.	.	.
.	(<24a/	.	.	.	.	.
.	24g/JJ	.	.	.	.	.
4G\	[2b-X/	8f\L	.	8cc\]	.	.
.	.	8e\	.	8r	.	.
4C/	.	8d\	.	4r	.	.
.	.	8c\J	.	.	.	.
=75	=75	=75	=75	=75	=75	=75
4CC/	4b-/]	8.d\L	<	2.r	.	.
.	.	16f\Jk	.	.	.	.
(4C\	&(>4a/ &&&(<4c/)	2ryy	.	.	.	.
[4CC)/	&&(>4g/&) 4B-X/	.	.	.	.	.
=76	=76	=76	=76	=76	=76	=76
4CC/]	8f/L&&) 8A&&&)	4ryy	[	2.r	.	.
.	24c/L	.	.	.	.	.
.	24d/	.	.	.	.	.
.	24c/JJ	.	.	.	.	.
!LO:TX:a:t=Sim.	!	!	!	!	!	!
4C\	[2e/	(8Bn\L	.	.	.	.
.	.	8A\	.	.	.	.
[4CC/	.	8G\	.	.	.	.
.	.	8F\J	.	.	.	.
=77	=77	=77	=77	=77	=77	=77
4CC/]	4e/]	8.G\L	.	2.r	.	.
.	.	(16B\Jk)	.	.	.	.
(<4GG\	4e/ 4G'/	2ryy	.	.	.	.
N(4GGG/)	4d/ 4F'/	.	.	.	.	.
=78	=78	=78	=78	=78	=78	=78
*ped	*	*	*	*	*	*
!LO:TX:t=P:problem=mixed beam	!	!	!	!	!	!
16CC/LL	4E/) 4c	4ryy	.	2.r	.	.
16GG/	.	.	.	.	.	.
16C/	.	.	.	.	.	.
16E>\JJ	.	.	.	.	.	.
!	!LO:TX:a:t=poco rit.	!	!	!	!	!
4ryy	16G\LL	2ryy	>	.	.	.
.	16c\	.	.	.	.	.
.	16e\	.	.	.	.	.
.	16g\JJ	.	.	.	.	.
4ryy	12cc\L	.	.	.	.	.
.	12ee\	.	.	.	.	.
.	12gg\J	.	.	.	.	.
*	*v	*v	*	*	*	*
=79	=79	=79	=79	=79	=79
2.r;	8ccc\N)	]	2.r;	.	.
.	8r	.	.	.	.
.	4r;	.	.	.	.
*Xped	*	*	*	*	*
!	!LO:SIC:v:s:t=niewidoczna pauza	!	!	!	!
.	4ryy	.	.	.	.
==	==	==	==	==	==
*-	*-	*-	*-	*-	*-
!!!system-decoration: s1[(s2,s3)]
!!!RDF**kern: N = linked
!!!RDF**kern: > = above
!!!RDF**kern: < = below
!!!RDF**dynam: p = p.
!!!ENC: Filip Voros
!!!END: 2022-03-10
!!!ENC: Leszek Kubiak
!!!END: 2022-03-17
